X:4981
T:Fairy Reel, The
R:reel
H:See also #65
Z:id:hn-reel-649
M:C|
K:G
BcBA GBdB|cBAG FGAc|BG~G2 cBAG|fgaf gedc|
BcBA GBdB|cBAG FGAc|BG~G2 cBAG|1 FGAF G3B:|2 FGAF G2Bc||
|:d2dB e2ed|cBcA d2dc|BGBd cBAG|fgaf gedc|
d2dB e2ed|cBcA d2dc|BGBd cBAG|1 FGAF G2Bc:|2 FGAF G3B||
